X: 3374
T: MAID OF LLANGOLLEN
%R: air, march
B: James Kerr "Merry Melodies" v.3 p.41 #374
Z: 2016 John Chambers <jc:trillian.mit.edu>
M: 2/4
L: 1/8
K: D
uA |\
d2e>f | d2AA | d2e>f | d3f |\
gfed | dBcd | Afed | e3 ::\
a |\
gfed | dBcd | Afed | e2a2 |\
gfed | dBcd | Afea | d3 :|

%%sep 1 1 500
%%sep 1 1 500

